svg/blobs-icons/no-decorations/juice.svg

<svg xmlns="http://www.w3.org/2000/svg" xmlns:xlink="http://www.w3.org/1999/xlink" preserveAspectRatio="xMidYMid" width="196" height="217" viewBox="0 0 196 217"><defs><style>.cls-3{fill:#142a3b}.cls-4{fill:#fbb713}.cls-5{fill:#2476ff}.cls-6{fill:#020403;opacity:.35}.cls-7{fill:#fff}</style></defs><g id="group-64svg"><path d="M192.74 44.943c0 22.937-18.594 41.533-41.532 41.533S109.675 67.88 109.675 44.943c0-22.938 18.595-41.534 41.533-41.534S192.74 22.005 192.74 44.943z" id="path-1" class="cls-3" fill-rule="evenodd"/><path d="M117.195 76.153C126.033 85.696 138.899 91.379 152.883 90.612c24.965-1.348 44.173-22.776 42.809-47.743-1.363-24.966-22.775-44.173-47.757-42.81-21.902 1.195-39.363 17.828-42.411 38.737h6.861C115.372 21.442 130 7.778 148.303 6.783c21.259-1.164 39.501 15.195 40.65 36.454 1.179 21.261-15.178 39.486-36.438 40.652-11.61.628-22.301-3.982-29.821-11.749L117.195 76.153z" id="path-2" class="cls-4" fill-rule="evenodd"/><path d="M138.776 61.954c16.128-9.589 15.455-19.36 15.316-20.448L153.755 38.796s-153.41.0-153.41.0-.321 2.695-.321 2.695C-.099 42.579-.788 52.365 15.34 61.939 24.729 67.53 53.294 84.5 53.049 96.586v13.831c0 11.259 7.919 20.754 18.472 23.374v72.602C68.06 208.155 55.714 211.938 42.497 213.224 31.759 215.384 34.532 216.87 34.532 216.87s34.554.0 34.554.0 5.743.0 5.743.0 45.184.0 45.184.0S122.786 215.384 112.049 213.224C98.815 211.938 86.486 208.155 83.024 206.393V133.699C93.347 130.941 101.067 121.522 101.067 110.417V96.525C100.959 91.064 106.805 84.575 114.091 78.605c0 0 21.779-14.932 24.685-16.651z" id="path-3" class="cls-5" fill-rule="evenodd"/><path d="M154.092 41.506S153.755 38.796 153.755 38.796s-10.254.0-10.254.0S143.838 41.506 143.838 41.506C143.976 42.594 144.65 52.365 128.52 61.954 125.615 63.673 103.836 78.604 103.836 78.604c-7.286 5.971-13.131 12.46-13.024 17.921v13.892c0 11.105-7.72 20.524-18.043 23.282v72.694C76.231 208.155 88.561 211.938 101.794 213.224 112.531 215.384 109.758 216.87 109.758 216.87s10.255.0 10.255.0S122.786 215.384 112.049 213.224C98.815 211.938 86.486 208.155 83.024 206.393V133.699C93.347 130.941 101.067 121.522 101.067 110.417V96.525C100.959 91.064 106.805 84.575 114.091 78.604c0 0 21.779-14.931 24.685-16.65 16.128-9.589 15.455-19.36 15.316-20.448z" id="path-4" class="cls-6" fill-rule="evenodd"/><path d="M81.087 130.602C80.798 130.602 80.505 130.567 80.214 130.493c-12.494-3.101-21.218-14.155-21.218-26.882V89.78C59.072 85.995 54.515 76.977 23.154 58.298l3.599-6.271s-1.85 3.106-1.85 3.106 1.95-3.046 1.95-3.046C45.318 63.084 66.48 77.316 66.225 89.853v13.758C66.225 113.008 72.694 121.178 81.954 123.478 83.892 123.958 85.073 125.919 84.593 127.856 84.183 129.502 82.709 130.602 81.087 130.602z" id="path-5" class="cls-7" fill-rule="evenodd"/><path d="M152.025 12.94s1.072 19.652 1.072 19.652S161.981 15.054 161.981 15.054C158.856 13.859 155.502 13.108 152.025 12.94z" id="path-6" class="cls-4" fill-rule="evenodd"/><path d="M175.551 24.903C173.391 22.253 170.849 19.971 167.985 18.118L159.101 35.64s16.45-10.737 16.45-10.737z" id="path-7" class="cls-4" fill-rule="evenodd"/><path d="M135.621 16.493s10.736 16.468 10.736 16.468-1.071-19.653-1.071-19.653C141.839 13.859 138.608 14.962 135.621 16.493z" id="path-8" class="cls-4" fill-rule="evenodd"/><path d="M123.199 27.767s17.522 8.884 17.522 8.884-10.737-16.466-10.737-16.466C127.335 22.345 125.053 24.903 123.199 27.767z" id="path-9" class="cls-4" fill-rule="evenodd"/><path d="M138.838 75.617C141.962 76.812 145.316 77.562 148.793 77.731l-1.072-19.652S138.838 75.617 138.838 75.617z" id="path-10" class="cls-4" fill-rule="evenodd"/><path d="M182.428 40.22C181.877 36.774 180.774 33.527 179.242 30.555L162.793 41.292s19.635-1.072 19.635-1.072z" id="path-11" class="cls-4" fill-rule="evenodd"/><path d="M170.834 70.471C173.484 68.311 175.765 65.768 177.619 62.904l-17.523-8.883s10.738 16.45 10.738 16.45z" id="path-12" class="cls-4" fill-rule="evenodd"/><path d="M180.682 56.9C181.877 53.775 182.627 50.42 182.796 46.944l-19.651 1.072S180.682 56.9 180.682 56.9z" id="path-13" class="cls-4" fill-rule="evenodd"/><path d="M155.533 77.349C158.978 76.797 162.226 75.694 165.197 74.163L154.46 57.697S155.533 77.349 155.533 77.349z" id="path-14" class="cls-4" fill-rule="evenodd"/></g></svg>

<svg xmlns="http://www.w3.org/2000/svg" xmlns:xlink="http://www.w3.org/1999/xlink" preserveAspectRatio="xMidYMid" width="196" height="217" viewBox="0 0 196 217">
  <defs>
    <style>

      .cls-3 {
        fill: #142a3b;
      }

      .cls-4 {
        fill: #fbb713;
      }

      .cls-5 {
        fill: #2476ff;
      }

      .cls-6 {
        fill: #020403;
        opacity: 0.35;
      }

      .cls-7 {
        fill: #ffffff;
      }
    </style>
  </defs>
  <g id="group-64svg">
    <path d="M192.740,44.943 C192.740,67.880 174.146,86.476 151.208,86.476 C128.270,86.476 109.675,67.880 109.675,44.943 C109.675,22.005 128.270,3.409 151.208,3.409 C174.146,3.409 192.740,22.005 192.740,44.943 Z" id="path-1" class="cls-3" fill-rule="evenodd"/>
    <path d="M117.195,76.153 C126.033,85.696 138.899,91.379 152.883,90.612 C177.848,89.264 197.056,67.836 195.692,42.869 C194.329,17.903 172.917,-1.304 147.935,0.059 C126.033,1.254 108.572,17.887 105.524,38.796 C105.524,38.796 112.385,38.796 112.385,38.796 C115.372,21.442 130.000,7.778 148.303,6.783 C169.562,5.619 187.804,21.978 188.953,43.237 C190.132,64.498 173.775,82.723 152.515,83.889 C140.905,84.517 130.214,79.907 122.694,72.140 C122.694,72.140 117.195,76.153 117.195,76.153 Z" id="path-2" class="cls-4" fill-rule="evenodd"/>
    <path d="M138.776,61.954 C154.904,52.365 154.231,42.594 154.092,41.506 C154.092,41.506 153.755,38.796 153.755,38.796 C153.755,38.796 0.345,38.796 0.345,38.796 C0.345,38.796 0.024,41.491 0.024,41.491 C-0.099,42.579 -0.788,52.365 15.340,61.939 C24.729,67.530 53.294,84.500 53.049,96.586 C53.049,96.586 53.049,110.417 53.049,110.417 C53.049,121.676 60.968,131.171 71.521,133.791 C71.521,133.791 71.521,206.393 71.521,206.393 C68.060,208.155 55.714,211.938 42.497,213.224 C31.759,215.384 34.532,216.870 34.532,216.870 C34.532,216.870 69.086,216.870 69.086,216.870 C69.086,216.870 74.829,216.870 74.829,216.870 C74.829,216.870 120.013,216.870 120.013,216.870 C120.013,216.870 122.786,215.384 112.049,213.224 C98.815,211.938 86.486,208.155 83.024,206.393 C83.024,206.393 83.024,133.699 83.024,133.699 C93.347,130.941 101.067,121.522 101.067,110.417 C101.067,110.417 101.067,96.525 101.067,96.525 C100.959,91.064 106.805,84.575 114.091,78.605 C114.091,78.605 135.870,63.673 138.776,61.954 Z" id="path-3" class="cls-5" fill-rule="evenodd"/>
    <path d="M154.092,41.506 C154.092,41.506 153.755,38.796 153.755,38.796 C153.755,38.796 143.501,38.796 143.501,38.796 C143.501,38.796 143.838,41.506 143.838,41.506 C143.976,42.594 144.650,52.365 128.520,61.954 C125.615,63.673 103.836,78.604 103.836,78.604 C96.550,84.575 90.705,91.064 90.812,96.525 C90.812,96.525 90.812,110.417 90.812,110.417 C90.812,121.522 83.092,130.941 72.769,133.699 C72.769,133.699 72.769,206.393 72.769,206.393 C76.231,208.155 88.561,211.938 101.794,213.224 C112.531,215.384 109.758,216.870 109.758,216.870 C109.758,216.870 120.013,216.870 120.013,216.870 C120.013,216.870 122.786,215.384 112.049,213.224 C98.815,211.938 86.486,208.155 83.024,206.393 C83.024,206.393 83.024,133.699 83.024,133.699 C93.347,130.941 101.067,121.522 101.067,110.417 C101.067,110.417 101.067,96.525 101.067,96.525 C100.959,91.064 106.805,84.575 114.091,78.604 C114.091,78.604 135.870,63.673 138.776,61.954 C154.904,52.365 154.231,42.594 154.092,41.506 Z" id="path-4" class="cls-6" fill-rule="evenodd"/>
    <path d="M81.087,130.602 C80.798,130.602 80.505,130.567 80.214,130.493 C67.720,127.392 58.996,116.338 58.996,103.611 C58.996,103.611 58.996,89.780 58.996,89.780 C59.072,85.995 54.515,76.977 23.154,58.298 C23.154,58.298 26.753,52.027 26.753,52.027 C26.753,52.027 24.903,55.133 24.903,55.133 C24.903,55.133 26.853,52.087 26.853,52.087 C45.318,63.084 66.480,77.316 66.225,89.853 C66.225,89.853 66.225,103.611 66.225,103.611 C66.225,113.008 72.694,121.178 81.954,123.478 C83.892,123.958 85.073,125.919 84.593,127.856 C84.183,129.502 82.709,130.602 81.087,130.602 Z" id="path-5" class="cls-7" fill-rule="evenodd"/>
    <path d="M152.025,12.940 C152.025,12.940 153.097,32.592 153.097,32.592 C153.097,32.592 161.981,15.054 161.981,15.054 C158.856,13.859 155.502,13.108 152.025,12.940 Z" id="path-6" class="cls-4" fill-rule="evenodd"/>
    <path d="M175.551,24.903 C173.391,22.253 170.849,19.971 167.985,18.118 C167.985,18.118 159.101,35.640 159.101,35.640 C159.101,35.640 175.551,24.903 175.551,24.903 Z" id="path-7" class="cls-4" fill-rule="evenodd"/>
    <path d="M135.621,16.493 C135.621,16.493 146.357,32.961 146.357,32.961 C146.357,32.961 145.286,13.308 145.286,13.308 C141.839,13.859 138.608,14.962 135.621,16.493 Z" id="path-8" class="cls-4" fill-rule="evenodd"/>
    <path d="M123.199,27.767 C123.199,27.767 140.721,36.651 140.721,36.651 C140.721,36.651 129.984,20.185 129.984,20.185 C127.335,22.345 125.053,24.903 123.199,27.767 Z" id="path-9" class="cls-4" fill-rule="evenodd"/>
    <path d="M138.838,75.617 C141.962,76.812 145.316,77.562 148.793,77.731 C148.793,77.731 147.721,58.079 147.721,58.079 C147.721,58.079 138.838,75.617 138.838,75.617 Z" id="path-10" class="cls-4" fill-rule="evenodd"/>
    <path d="M182.428,40.220 C181.877,36.774 180.774,33.527 179.242,30.555 C179.242,30.555 162.793,41.292 162.793,41.292 C162.793,41.292 182.428,40.220 182.428,40.220 Z" id="path-11" class="cls-4" fill-rule="evenodd"/>
    <path d="M170.834,70.471 C173.484,68.311 175.765,65.768 177.619,62.904 C177.619,62.904 160.096,54.021 160.096,54.021 C160.096,54.021 170.834,70.471 170.834,70.471 Z" id="path-12" class="cls-4" fill-rule="evenodd"/>
    <path d="M180.682,56.900 C181.877,53.775 182.627,50.420 182.796,46.944 C182.796,46.944 163.145,48.016 163.145,48.016 C163.145,48.016 180.682,56.900 180.682,56.900 Z" id="path-13" class="cls-4" fill-rule="evenodd"/>
    <path d="M155.533,77.349 C158.978,76.797 162.226,75.694 165.197,74.163 C165.197,74.163 154.460,57.697 154.460,57.697 C154.460,57.697 155.533,77.349 155.533,77.349 Z" id="path-14" class="cls-4" fill-rule="evenodd"/>
  </g>
</svg>
